!!!!SEGMENT: pl-wtm--iii-41-707_kagan-jakub--halloh-jestem-w-cedergrenie.krn
!!!cenid: 19xx:12
!!!COM: Kagan, Jakub
!!!COM-rismID: pe50046719
!!!CDT: 1896/02/07-1942
!!!CNT: Polish
!!!OTL: Halloh!/Jestem w Cedergrenie
!!!PDT:
!!!AGN: Secular
!!!YEC: Copyright 2022 Narodowy Instytut Fryderyka Chopina (https://polishscores.org)
!!!YEM: License CC-BY-4.0 (https://creativecommons.org/licenses/by/4.0)
!!!SMS-siglum: PL-Wtm
!!!SMS-shelfmark: III.41.707
!!!SMS-variant:
!!!SMS-altvar:
!!!SMS-shelfwork: W
!!!NIFC-rismSourceID: 1001147377
!!!NIFC-rismChildID: 1001147377
!!!NIFC-islandoraID: pl-wtm:20900
!!!URL-pdf-islandora: https://repozytorium.nifc.pl/islandora/object/pl-wtm%3A20900/datastream/PDF/view
!!!URL-scan: https://polish.musicsources.pl/pl/lokalizacje/galeria/druki-muzyczne/17588/2 @EN{Scan on Polish Music Sources Website} @PL{Skany w portalu Dziedzictwo Muzyki Polskiej w otwartym dostępie}
!!!IIIF:
!!!ONB-nifc:
!!!AIN: 1 feme 1 forte
!!!key: B-
**kern	**kern	**dynam	**kern	**text	**text	**dynam
*part2	*part2	*part2	*part1	*part1	*part1	*part1
*staff3	*staff2	*	*staff1	*staff1	*staff1	*
*I"[Piano]	*I"[Piano]	*	*I"[Voce]	*	*	*
*I'P-no	*I'P-no	*	*I'V.	*	*	*
*IClav	*IClav	*	*ICvox	*	*	*
*Iforte	*Iforte	*	*Ifeme	*	*	*
*clefF4	*clefG2	*	*clefG2	*	*	*
*k[b-e-]	*k[b-e-]	*	*k[b-e-]	*	*	*
*B-:	*B-:	*	*B-:	*	*	*
*M2/4	*M2/4	*	*M2/4	*	*	*
=1	=1	=1	=1	=1	=1	=1
*clefG2	*	*	*	*	*	*
8G/L	(16gg\LL	f	2ryy	.	.	.
.	16aa\	.	.	.	.	.
8d/J 8g 8b-	16bb-\	.	.	.	.	.
.	16ccc\JJ	.	.	.	.	.
8B-/L	8ddd\L)	.	.	.	.	.
8g/J 8b- 8dd	8bb-\J 8ddd 8ggg	.	.	.	.	.
=2	=2	=2	=2	=2	=2	=2
8A/L	8r	.	2ryy	.	.	.
8e-/J 8g 8cc	8gg\ 8ccc 8eee-	.	.	.	.	.
*clefF4	*	*	*	*	*	*
8D/L	8r	.	.	.	.	.
*clefG2	*	*	*	*	*	*
8d/J 8a 8cc	8ff#X\ 8ccc 8ddd	.	.	.	.	.
*clefF4	*	*	*	*	*	*
=3	=3	=3	=3	=3	=3	=3
8GG\L	(16g/LL	mf	2ryy	.	.	.
.	16a/	.	.	.	.	.
8D\J 8G 8B-	16b-/	.	.	.	.	.
.	16cc/JJ	.	.	.	.	.
8BB-\L	8dd\L)	.	.	.	.	.
8G\J 8B- 8d	8b-\J 8dd 8gg	.	.	.	.	.
=4	=4	=4	=4	=4	=4	=4
8AA\L	8r	.	2ryy	.	.	.
8E-\J 8G 8c	8g\ 8cc 8ee-	.	.	.	.	.
8DD\L	8r	.	.	.	.	.
8D\J 8A 8c	8f#X/ 8cc 8dd	.	.	.	.	.
=5	=5	=5	=5	=5	=5	=5
*	*^	*	*	*	*	*
8GG/	(>16G/LL	4ryy	p	2ryy	.	.	.
.	16A/	.	.	.	.	.	.
8r	16B-/	.	.	.	.	.	.
.	16c/JJ	.	.	.	.	.	.
8BB-\L	4d/	8r	.	.	.	.	.
8D\J	.	(>8G\ 8B-	.	.	.	.	.
!!LO:LB:g=original
=6	=6	=6	=6	=6	=6	=6	=6
8AA\L	2d/))	8r	.	2r	.	.	.
8E-\J	.	8G\ 8c	.	.	.	.	.
8DD/L	.	8r	.	.	.	.	.
8D/J	.	8F#X\ 8c	.	.	.	.	.
=7	=7	=7	=7	=7	=7	=7	=7
8GG/	(>16G/LL	4ryy	p	2r	.	.	.
.	16A/	.	.	.	.	.	.
8r	16B-/	.	.	.	.	.	.
.	16c/JJ	.	.	.	.	.	.
8BB-/L	(4d/	8r	.	.	.	.	.
8D/J	.	8G\ 8B-	.	.	.	.	.
=8	=8	=8	=8	=8	=8	=8	=8
8AA/L	2B-/))	8r	.	2r	.	.	.
8E-/J	.	8G\ 8c	.	.	.	.	.
8DD/L	.	8r	.	.	.	.	.
8D/J	.	8F#X\ 8c	.	.	.	.	.
*	*v	*v	*	*	*	*	*
=9||	=9||	=9||	=9||	=9||	=9||	=9||
8G\L	[2dd\	mf	[2dd\	Je-	Do sie-	.
8B-\J 8d	.	.	.	.	.	.
8D\L	.	.	.	.	.	.
8B-\J 8d	.	.	.	.	.	.
=10	=10	=10	=10	=10	=10	=10
8G\L	8dd\L]	.	8dd\]	.	.	.
8B-\J 8d	8cc#X\J	.	8cc#X\	-stem	-bie	.
8D\L	8dd\L	.	8dd\	w Ce-	mnie	.
8B-\J 8d	8ee-\J	.	8ee-\	-derg-	raz	.
=11	=11	=11	=11	=11	=11	=11
8G\L	4dd\	.	4dd\	-re-	wzy-	.
8B-\J 8d	.	.	.	.	.	.
8D\L	[4b-\	.	[4b-\	-nie	-wa	.
8B-\J 8d	.	.	.	.	.	.
=12	=12	=12	=12	=12	=12	=12
8G\L	8b-\L]	.	8b-\]	.	.	.
8B-\J 8d	8b-\J	.	8b-\	Wśród	Te-	.
8D\L	8cc\L	.	8cc\	wie-	-le-	.
8B-\J 8d	8dd\J	.	8dd\	-lu	-fo-	.
!!LO:LB:g=original
=13	=13	=13	=13	=13	=13	=13
8F#X\L	4a/	.	4a/	in-	-nis-	.
8c\J 8d	.	.	.	.	.	.
8D\L	4dd\	.	4dd\	-nych	-tek	.
8c\J 8d	.	.	.	.	.	.
=14	=14	=14	=14	=14	=14	=14
8F#X\L	8dd\L	.	8dd\	pięk-	wszyst-	.
8c\J 8d	8cc\J	.	8cc\	-nych	-kich	.
8D\L	8a/L	.	8a/	mło-	sro-	.
8c\J 8d	8b-/J	.	8b-\	-dych	-gi	.
=15	=15	=15	=15	=15	=15	=15
8G\L 8B- 8d	8g/L	.	8g/	dam	szef	.
(16C#X\L	(16c#X/L	.	8r	.	.	.
16D\JJ	16d/JJ	.	.	.	.	.
8G\L)	8g/L)	.	4r	.	.	.
(16C#\L	(16cn/L	.	.	.	.	.
16D\JJ	16d/JJ	.	.	.	.	.
=16	=16	=16	=16	=16	=16	=16
8G\L)	8g/L)	.	2ryy	.	.	.
8F\J	8f/J	.	.	.	.	.
8E-\L	8e-/L	.	.	.	.	.
8D\J	8d/J	.	.	.	.	.
=17	=17	=17	=17	=17	=17	=17
8G\L	[2dd\	.	[2dd\	W pra-	Ach	.
8B-\J 8d	.	.	.	.	.	.
8D\L	.	.	.	.	.	.
8B-\J 8d	.	.	.	.	.	.
=18	=18	=18	=18	=18	=18	=18
8G\L	8dd\L]	.	8dd\]	.	.	.
8B-\J 8d	8cc#X\J	.	8cc#X\	-cy	ja	.
8D\L	8dd\L	.	8dd\	nie-	niesz-	.
8B-\J 8d	8ee-\J	.	8ee-\	-stru-	-częś-	.
=19	=19	=19	=19	=19	=19	=19
8G\L	4dd\	.	4dd\	-dze-	-li-	.
8B-\J 8d	.	.	.	.	.	.
8D\L	[4b-\	.	[4b-\	-nie	-wa	.
8B-\J 8d	.	.	.	.	.	.
!!LO:LB:g=original
=20	=20	=20	=20	=20	=20	=20
8G\L	8b-\L]	.	8b-\]	.	.	.
8B-\J 8d	8b-\J	.	8b-\	Przez	Ze	.
8D\L	8a/L	.	8a/	ca-	stra-	.
8B-\J 8d	8g/J	.	8g/	-ły	-chu	.
=21	=21	=21	=21	=21	=21	=21
8C\L	4f/	.	4f/	dzień	styg-	.
8E-\J 8F 8A	.	.	.	.	.	.
8FF\L	[4a/	.	[4a/	lub	-nie	.
8E-\J 8F 8A	.	.	.	.	.	.
=22	=22	=22	=22	=22	=22	=22
8C\L	8a/L]	.	8a/]	nie	.	.
8E-\J 8F 8A	8g/J	.	8g/	raz	mi	.
8FF\L	8e-/L	.	8e-/	przez	w ży-	.
8E-\J 8F 8A	8f/J	.	8f/	noc	-łach	.
=23	=23	=23	=23	=23	=23	=23
8BB-\L 8F	8B-/L 8d	.	8d/	trwam	krew	.
!	!	!LO:DY:rj	!	!	!	!
(16BB-\L	(16B-/L	f	8r	.	.	.
16C\JJ	16c/JJ	.	.	.	.	.
8D/L)	8d/L)	.	4r	.	.	.
(16BB-/L	16B-/L	.	.	.	.	.
16C/JJ	16c/JJ	.	.	.	.	.
=24	=24	=24	=24	=24	=24	=24
8D\)	8d/L	>	8r	.	.	.
8r	8d/J	.	8d/	Ten	Ja	.
4r	8c#X/L	.	8c#X/	łą-	o-	.
.	8d/J	]]	8d/	-czyć	-my-	.
=25	=25	=25	=25	=25	=25	=25
8AA/	8e-/L	.	8e-/	się	-li-	.
4D\ 4F#X 4c	8d/J	.	8d/	ma	-łam	.
.	[4f#X/	.	[4f#X/	chęć	się	.
8D\ 8F# 8c	.	.	.	.	.	.
=26	=26	=26	=26	=26	=26	=26
8DD/	8f#/L]	.	8f#/]	.	.	.
4D\ 4F#X 4c	8d/J	.	8d/	sto	Nie	.
.	8c#X/L	.	8c#X/	czte-	by-	.
8D\ 8F# 8c	8d/J	.	8d/	-ry	-ło	.
!!LO:LB:g=original
=27	=27	=27	=27	=27	=27	=27
8GG/	8e-/L	.	8e-/	ze-	znów	.
4D\ 4G 4B-	8d/J	.	8d/	-ro	tak	.
.	[4g^>/	.	[4g/	pięć	źle	.
8D\ 8G 8B-	.	.	.	.	.	.
=28	=28	=28	=28	=28	=28	=28
8GG/	8g/L]	.	8g/]	.	.	.
4D\ 4G 4B-	8g/J	.	8g/	Ta	Lecz	.
.	8f#X/L	.	8f#X/	zno-	przez	.
8D\ 8G 8B-	8g/J	.	8g/	-wu	go-	.
=29	=29	=29	=29	=29	=29	=29
8FF/	8a/L	.	8a/	chęt-	-dzi-	.
4F\ 4A 4e-	8fn/J	.	8fn/	-kę	-ny	.
.	[4cc^^\	<	[4cc\	ma	dwie	.
8F\ 8A 8e-	.	.	.	.	.	.
=30	=30	=30	=30	=30	=30	=30
8FF/	8cc\L]	.	8cc\]	.	.	.
4F\ 4A 4e-	8cc\J	.	8cc\	Pięć-	A-	.
.	8bn\L	.	8bn\	-dzie-	-pa-	.
8F\ 8A 8e-	8cc\J	[[	8cc\	-siąt	-rat	.
=31	=31	=31	=31	=31	=31	=31
8BB-\ 8B-	8f/ 8b- 8dd	.	8dd\	dziewięć	mój nie	.
8r	8r	.	8r	.	.	.
4BB-^^\ 4B-	4f^^/ 4b- 4dd	f	4dd\	zero	dzia-	.
=32	=32	=32	=32	=32	=32	=32
4AA^^\ 4A	4f#X^^/ 4cc 4dd	.	4dd\	dwa	-łał	.
4AA^^\ 4A	4f#/ 4cc 4dd	.	4dd\	Ja	nie	.
=33	=33	=33	=33	=33	=33	=33
8GG/	[2dd\	.	[2dd\	proś-	Tak	.
4G\ 4Bn 4f	.	.	.	.	.	.
8G\ 8B 8f	.	.	.	.	.	.
=34	=34	=34	=34	=34	=34	=34
8GG/	8dd\L]	>	8dd\]	.	Tak	.
4G\ 4Bn 4f	8cc#X\J	.	8cc#X\	-bę	dla	.
.	8dd\L	.	8dd\	us-	a-	.
8G\ 8B 8f	8ee-\J	]]	8ee-\	-ku-	-bo-	.
=35	=35	=35	=35	=35	=35	=35
8C/	4dd\	.	4dd\	-tecz-	-nen-	.
4G\ 4c 4e-	.	.	.	.	.	.
.	4cc\	.	4cc\	-nie	-ta	.
8G\ 8c 8e-	.	.	.	.	.	.
!!LO:PB:g=original
=36	=36	=36	=36	=36	=36	=36
8C/	8r	mf	8r	.	.	.
4G\ 4c 4e-	8g/L	.	8g/	Te-	by-	.
.	8g/	.	8g/	-go	-łam	.
8G\ 8c 8e-	8a/J	.	8a/	kto	za-	.
=37	=37	=37	=37	=37	=37	=37
8D\L	8b-\L	.	8b-\	grzecz-	-ję-	.
!	!	!	!LO:TX:t=P:problem=8cc w nawiasie	!	!	!
8G\J 8B- 8d	8cc\	.	8cc\	.	.	.
8D\L	8b-\	.	8b-\	-nie	-ta	.
!	!	!	!LO:TX:t=P:problem=8cc w nawiasie	!	!	!
8G\J 8B- 8d	8cc\J	.	8cc\	.	.	.
=38	=38	=38	=38	=38	=38	=38
8D\L	8b-\L	.	8b-\	Mi-	przez	.
8G\J 8B- 8d	8cc\J	.	8cc\	-le	go-	.
8D\L	8a\L	.	8a/	pro-	-dzi-	.
8F#X\J 8c 8d	8b-\J	.	8b-\	-si	-ny	.
=39	=39	=39	=39	=39	=39	=39
*	*^	*	*	*	*	*
4G^^\	4g/	8r	.	8g/	tak	dwie	.
.	.	8B-\ 8d	.	8r	.	.	.
4G-X^^\	4g-X/	8r	.	4r	.	.	.
.	.	8B-\ 8d	.	.	.	.	.
*	*v	*v	*	*	*	*	*
=40	=40	=40	=40	=40	=40	=40
8F\	8B-/ 8d 8f	.	4r	.	.	.
8r	8r	.	.	.	.	.
!	!	!	!	!	!	!LO:DY:a
4BBBn/ 4BBn	4f/ 4a-X 4dd	f	4dd\	Hal-	I	f
=41||	=41||	=41||	=41||	=41||	=41||	=41||
8CC^^/ 8C	[2g^\ [2cc [2ee-	.	[2ee-^\	-loh!	sły-	.
4G\ 4c 4e-	.	.	.	.	.	.
8G\ 8c 8e-	.	.	.	.	.	.
=42	=42	=42	=42	=42	=42	=42
8GG/	8g\L] 8cc] 8ee-]	f	8ee-\]	.	.	.
4G\ 4c 4e-	8g\J	.	8g/	Ach	-szę	.
.	8f#X/L	.	8f#X/	słod-	zda	.
8G\ 8c 8e-	8g/J	.	8g/	-kie	się	.
=43	=43	=43	=43	=43	=43	=43
8E-\	8.dd\L	.	8dd\	dziew-	sło-	.
4G\ 4c 4e-	.	.	16ryy	.	.	.
.	16g\Jk	.	16g/	-czę	-wa	.
.	[4cc\	.	[4cc\	me	te	.
8G\ 8c 8e-	.	.	.	.	.	.
!!LO:LB:g=original
=44	=44	=44	=44	=44	=44	=44
8E-\	4cc\]	.	4cc\]	.	.	.
!LO:N:vis=4	!	!	!	!	!	!
8G\ 8c 8e-	.	.	.	.	.	.
4EEn^^/ 4En	4g^^/ 4b- 4cc#X	.	4cc#X\	Hal-	Jak	.
=45	=45	=45	=45	=45	=45	=45
8FF/ 8F	[2f/ [2b- [2dd	.	[2dd^\	-loh!	któ-	.
4F\ 4B- 4d	.	.	.	.	.	.
8F\ 8B- 8d	.	.	.	.	.	.
=46	=46	=46	=46	=46	=46	=46
8FF/	8f/L] 8b-] 8dd]	.	8dd\]	.	.	.
4F\ 4B- 4d	8f/J	.	8f/	z nie-	-ryś	.
.	8en/L	.	8en/	-cier-	kli-	.
8F\ 8B- 8d	8f/J	.	8f/	-pli-	-jent	.
=47	=47	=47	=47	=47	=47	=47
8D\	8.cc\L	.	8.cc\	-woś-	wście-	.
4F\ 4B- 4d	.	.	.	.	.	.
.	16f\Jk	.	16f/	-ci	-ka	.
.	[4b-\	.	[4b-\	drżę	się	.
8F\ 8B- 8d	.	.	.	.	.	.
=48	=48	=48	=48	=48	=48	=48
8FF\L	8b-/L]	.	8b-\]	.	.	.
8A\J	8a/J	.	8a/	Ja	Hal-	.
8G\L	8g/L	.	8g/	jes-	-loch	.
8G-X\J	8g-X/J	.	8g-X/	-tem	jam	.
=49	=49	=49	=49	=49	=49	=49
8BB-\L	4.f^^/	.	4.f^^/	już	zroz-	.
8D\J 8F	.	.	.	.	.	.
8FF\L	.	.	.	.	.	.
8D\J 8F	8d/	.	8d/	w roz-	-pa-	.
=50	=50	=50	=50	=50	=50	=50
.	(8qf/	.	.	.	.	.
8AA\L	8e-/L)	.	8e-/	-pa-	-czo-	.
8E-\J 8F	8c/J	.	8c/	-czy	-ny	.
8FF\L	8r	.	8r	.	.	.
8E-\J 8F	8d/	.	8d/	Niech	Ktoś	.
!!LO:LB:g=original
=51	=51	=51	=51	=51	=51	=51
.	(8qf/	.	.	.	.	.
8AA\L	8e-/L)	.	8d/	pa-	in-	.
8E-\J 8F	8c/J	.	8c/	-ni	-ny	.
.	(8qf/	.	.	.	.	.
8FF\L	8e-/L)	.	8e-/	złą-	po-	.
8E-\J 8F	8c/J	.	8c/	-czyć	-łą-	.
=52	=52	=52	=52	=52	=52	=52
.	8qf/	.	.	.	.	.
8BB-\L	8f/L	.	8f/	ra-	-czo-	.
8D\J 8F	8d/J	.	8d/	-czy	-ny	.
8FF\L	8r	.	8r	.	.	.
8D\J 8F	8e-/	.	8e-/	Hal-	Te	.
=53	=53	=53	=53	=53	=53	=53
8D\L	8f/L	.	8f/	-loh!	wstręt-	.
8F\J 8B-	8b-/J	.	8b-\	Ach	-ne	.
8FF\L	8a/L	.	8a/	pa-	te-	.
8F\J 8B-	8g/J	.	8g/	-ni	-le-	.
=54	=54	=54	=54	=54	=54	=54
8C\L	8a/	.	8a/	dro-	-fo-	.
8F\J 8A	4e-/ 4f 4cc	.	4cc\	-ga	-ny	.
8FF\L	.	.	.	.	.	.
8F\J 8A	8f/ 8a	.	8a/	Na	Na	.
=55	=55	=55	=55	=55	=55	=55
8AA\L	8e-/ 8g	.	8g/	Bo-	Bo-	.
8F\J	4g/ 4b-	.	4b-\	-ga,	-ga,	.
8FF\L	.	.	.	.	.	.
8F\J	8e-/ 8g	.	8g/	Hal-	Hal-	.
=56	=56	=56	=56	=56	=56	=56
8BB-\ 8F	8d/ 8f	.	8f/	-loh!	-loh!	.
8r	8r	.	8r	.	.	.
4BBBn^/ 4BBn	4f/ 4a-X 4dd	f	4dd^^\	Hal-	Hal-	.
=57	=57	=57	=57	=57	=57	=57
8CC/ 8C	[2g\ [2cc [2ee-	.	[2ee-\	-loh!	-loh!	.
4G\ 4c 4e-	.	.	.	.	.	.
8G\ 8c 8e-	.	.	.	.	.	.
=58	=58	=58	=58	=58	=58	=58
8GG/	8g\L] 8cc] 8ee-]	mf	8ee-\]	.	.	.
4G\ 4c 4e-	8g\J	.	8g/	Ty	Ty	.
.	8f#X/L	.	8f#X/	słod-	słod-	.
8G\ 8c 8e-	8g/J	.	8g/	-kie	-kie	.
!!LO:LB:g=original
=59	=59	=59	=59	=59	=59	=59
8E-\	8dd\L	.	8dd\	dziew-	dziew-	.
4G\ 4c 4e-	16ryy	.	16ryy	.	.	.
.	16g\Jk	.	16g/	-czę	-czę	.
.	[4cc\	.	[4cc\	me	me	.
8G\ 8c 8e-	.	.	.	.	.	.
=60	=60	=60	=60	=60	=60	=60
8E-\L	4cc\]	.	4cc\]	.	.	.
8G\J 8c 8e-	.	.	.	.	.	.
4EEn^^/ 4En	4g/ 4b- 4cc#X	f	4cc#X^\	Hal-	Hal-	.
=61	=61	=61	=61	=61	=61	=61
8FF/ 8F	[2f/ 2b- [2dd	.	[2dd^\	-loh!	-loh!	.
4F\ 4B- 4d	.	.	.	.	.	.
8F\ 8B- 8d	.	.	.	.	.	.
=62	=62	=62	=62	=62	=62	=62
8FF/	8f/L] 8b- 8dd]	.	8dd\]	.	.	.
4F\ 4B- 4d	8f/J	mf	8f/	z nie-	z nie-	.
.	8en/L	.	8en/	-cier-	-cier-	.
8F\ 8B- 8d	8f/J	.	8f/	-pli-	-pli-	.
=63	=63	=63	=63	=63	=63	=63
8D\	8.cc/L	.	8.cc\	-woś-	-woś-	.
4F\ 4B- 4d	.	.	.	.	.	.
.	16f/Jk	.	16f/	-ci	-ci	.
.	4b-\	.	4b-\	drżę	drżę	.
8F\ 8B- 8d	.	.	.	.	.	.
=64	=64	=64	=64	=64	=64	=64
8FF\L	8b-/L	.	8b-\	.	.	.
8A\J	8a/J	.	8a/	Bo	Ja	.
8G\L	8g/L	.	8g/	jes-	jes-	.
8G-X\J	8g-X/J	.	8g-X/	-tem	-tem	.
=65	=65	=65	=65	=65	=65	=65
8BB-\L	4.f^/	.	4.f/	już	już	.
8D\J 8F	.	.	.	.	.	.
8FF\L	.	.	.	.	.	.
8D\J 8F	8d/	.	8d/	w roz-	w roz-	.
!!LO:LB:g=original
=66	=66	=66	=66	=66	=66	=66
.	(8qf/	.	.	.	.	.
8AA\L	8e-/L)	.	8e-/	-pa-	-pa-	.
8E-\J 8F	8c/J	.	8c/	-czy	-czy	.
.	(8qf/	.	.	.	.	.
8FF\L	8e-/L)	.	8e-/	Niech-	Niech-	.
8E-\J 8F	8c/J	.	8c/	-że	-że	.
=67	=67	=67	=67	=67	=67	=67
8E-\L	4.b-^^\	.	4.b-\	pa-	pa-	.
8G-X\J 8A-X 8c	.	.	.	.	.	.
8AA-X\L	.	.	.	.	.	.
8G-\J 8A- 8c	8g-X/	.	8g-X/	-ni	-ni	.
=68	=68	=68	=68	=68	=68	=68
.	(8qb-/	.	.	.	.	.
8D-X\L	8a-X/L)	.	8a-X/	ra-	ra-	.
8F\J 8A-X 8d-X	8f/J	.	8f/	-czy	-czy	.
.	(8qb-/	.	.	.	.	.
8AA-X\L	8a-/L)	.	8a-/	I	I	.
8F\J 8A- 8d-	8f/J	.	8f/	po-	po-	.
=69	=69	=69	=69	=69	=69	=69
*	*^	*	*	*	*	*
4F^^\	4d^^/ 4dd	8r	.	4dd^^\	-łą-	-łą-	.
.	.	8f\ 8b-	.	.	.	.	.
4F#X^^\	4d^^/ 4dd	8r	.	4dd^^\	-czyć	-czy	.
.	.	8f#X\ 8b-	.	.	.	.	.
=70	=70	=70	=70	=70	=70	=70	=70
4G^^\	4d^^/ 4dd	8r	.	4dd^^\	chce	mnie,	.
.	.	8g\ 8b-	.	.	.	.	.
4G-X^^\	4d^^/ 4dd	8r	.	4dd^^\	z Cen-	bo	.
.	.	8g-X\ 8b-	.	.	.	.	.
*	*v	*v	*	*	*	*	*
=71	=71	=71	=71	=71	=71	=71
8F\	8f/ 8a 8dd	.	[8dd\	-tra-	bę-	.
4F^^\	4f^/ 4a 4dd	.	4dd\]	.	.	.
8FF/	8e-/ 8a 8cc	.	8cc\	-lą	-dzie	.
=72	=72	=72	=72	=72	=72	=72
8BB-\ 8F	8d/ 8f 8b-	ff	8b-\	mnie	żle	.
8r	8r	.	8r	.	.	.
8BBB-/ 8BB-	8b-\ 8dd 8ff 8bb-	.	4r	.	.	.
8r	8r	.	.	.	.	.
==	==	==	==	==	==	==
*-	*-	*-	*-	*-	*-	*-
!!!system-decoration: s1[(s2,s3)]
!!!RDF**kern: > = above
!!!RDF**kern: < = below
!!!ENC: Andrzej Gręziak
!!!END: 2023-09-09
!!!ENC: Leszek Kubiak
!!!END: 2023-10-04
